svg/u1f92c.svg

<svg viewBox="0 0 128 128" xmlns="http://www.w3.org/2000/svg">
  <g id="faces">
    <radialGradient id="cursing-face_1_" cx="63.6" cy="2584.8999" gradientTransform="matrix(1 0 0 1 0 -2522)" gradientUnits="userSpaceOnUse" r="56.9597">
      <stop offset="0.12" stop-color="#FAC742"/>
      <stop offset="0.32" stop-color="#FAC440"/>
      <stop offset="0.48" stop-color="#FBBA3B"/>
      <stop offset="0.62" stop-color="#FBA931"/>
      <stop offset="0.76" stop-color="#FC9224"/>
      <stop offset="0.88" stop-color="#FE7413"/>
      <stop offset="1" stop-color="#FF5100"/>
    </radialGradient>
    <path id="cursing-face" d="M63.6,118.8c-27.9,0-58-17.5-58-55.9S35.7,7,63.6,7 c15.5,0,29.8,5.1,40.4,14.4c11.5,10.2,17.6,24.6,17.6,41.5s-6.1,31.2-17.6,41.4C93.4,113.6,79,118.8,63.6,118.8z" fill="url(#cursing-face_1_)"/>
    <path d="M111.49,29.67c5.33,8.6,8.11,18.84,8.11,30.23c0,16.9-6.1,31.2-17.6,41.4 c-10.6,9.3-25,14.5-40.4,14.5c-18.06,0-37-7.35-48.18-22.94c10.76,17.66,31,25.94,50.18,25.94c15.4,0,29.8-5.2,40.4-14.5 c11.5-10.2,17.6-24.5,17.6-41.4C121.6,50.16,118.13,38.84,111.49,29.67z" fill="#D84213"/>
  </g>
  <g id="facial_expressions">
    <g id="serious-face-with-symbols-covering-mouth">
      <g id="mouth">
        <rect height="79.43" transform="matrix(0.1047 -0.9945 0.9945 0.1047 -37.2971 145.7383)" width="33.75" x="45.42" y="53.87"/>
        <path d="M38.73,94.29l-2.1-0.2l-1.39,5.26l-2.6-0.25L34,93.84l-2.89-0.28l0.23-2.39l3.29,0.32l0.9-3.39 l-2.88-0.28l0.23-2.38l3.27,0.32l1.43-5.34l2.58,0.25L38.78,86l2.1,0.2l1.42-5.34l2.59,0.25l-1.42,5.34l3,0.29l-0.23,2.39 l-3.4-0.33l-0.91,3.38l3,0.29l-0.23,2.39l-3.38-0.33l-1.39,5.27l-2.59-0.25L38.73,94.29z M37.25,91.74l2.1,0.2l0.9-3.38 l-2.1-0.21L37.25,91.74z" fill="#FFFFFF"/>
        <path d="M57,96.5c0.07-0.53-0.05-1.06-0.35-1.5c-0.4-0.48-0.9-0.86-1.47-1.12c-0.72-0.38-1.38-0.75-2-1.12 c-0.56-0.35-1.08-0.77-1.53-1.25c-0.4-0.44-0.7-0.95-0.89-1.51c-0.2-0.65-0.26-1.33-0.18-2c0.1-1.18,0.68-2.26,1.61-3 c1.04-0.78,2.32-1.17,3.62-1.12L56,81.44l1.81,0.18l-0.23,2.45c1.25,0.25,2.36,0.97,3.11,2c0.72,1.08,1.03,2.4,0.85,3.69 l-3.86-0.37c0.1-0.64,0-1.29-0.28-1.87c-0.48-0.77-1.5-1.01-2.27-0.53c-0.06,0.04-0.12,0.08-0.18,0.13 c-0.33,0.34-0.53,0.79-0.55,1.26c-0.07,0.49,0.05,0.99,0.35,1.39c0.41,0.46,0.9,0.83,1.45,1.1c0.68,0.37,1.32,0.74,1.92,1.13 c0.56,0.35,1.07,0.78,1.52,1.26c0.41,0.45,0.72,0.97,0.93,1.54c0.21,0.64,0.28,1.33,0.2,2c-0.07,1.19-0.63,2.3-1.55,3.07 c-0.99,0.77-2.22,1.17-3.47,1.13l-0.23,2.29l-1.81-0.17l0.22-2.31c-1.43-0.21-2.73-0.95-3.65-2.07c-0.83-1.13-1.19-2.55-1-3.94 l3.84,0.37c-0.11,0.69,0.03,1.4,0.39,2c0.37,0.5,0.95,0.81,1.57,0.84c0.45,0.07,0.91-0.06,1.27-0.35 C56.71,97.37,56.94,96.96,57,96.5z" fill="#FFFFFF"/>
        <path d="M65.75,101.68c0.04-0.59,0.34-1.12,0.82-1.46c1.06-0.71,2.46-0.57,3.37,0.32 c0.77,0.87,0.69,2.19-0.17,2.96c-0.04,0.04-0.08,0.07-0.13,0.11c-0.51,0.36-1.13,0.51-1.74,0.43c-0.62-0.04-1.2-0.31-1.62-0.76 C65.88,102.85,65.68,102.27,65.75,101.68z M70.24,98.17l-3.44-0.33l0.67-12.59l4.52,0.44L70.24,98.17z" fill="#FFFFFF"/>
        <path d="M96.26,96.18c-0.15,1.75-0.85,3.41-2,4.73c-0.99,1.1-2.46,1.65-3.93,1.46 c-0.59-0.05-1.17-0.25-1.66-0.58c-0.45-0.33-0.8-0.77-1-1.29c-0.8,0.93-2.02,1.4-3.24,1.25c-0.72-0.06-1.39-0.36-1.91-0.86 c-0.53-0.55-0.88-1.25-1-2c-0.19-0.92-0.19-1.88,0-2.8c0.31-1.71,1.13-3.29,2.35-4.53c1.03-1.05,2.48-1.58,3.94-1.43 c1.05,0.08,2.06,0.46,2.9,1.09l0.69,0.57l-1.27,6.83c-0.23,1.08,0.09,1.66,1,1.74c0.77,0.02,1.47-0.42,1.8-1.11 c0.59-0.97,0.95-2.06,1.06-3.19c0.49-2.12,0.13-4.35-1-6.21c-1.22-1.62-3.11-2.6-5.14-2.66c-1.41-0.16-2.84,0.11-4.1,0.76 c-1.28,0.69-2.35,1.73-3.07,3c-0.85,1.43-1.4,3.01-1.61,4.66c-0.39,2.73-0.06,4.88,1,6.45c1.26,1.66,3.21,2.66,5.29,2.71 c0.7,0.07,1.41,0.07,2.11,0c0.63-0.05,1.25-0.18,1.85-0.36l0.25,2c-0.63,0.3-1.31,0.5-2,0.57c-0.85,0.12-1.72,0.12-2.57,0.02 c-1.89-0.12-3.71-0.72-5.3-1.75c-1.42-0.96-2.48-2.37-3-4c-0.58-1.92-0.71-3.95-0.39-5.93c0.25-2.02,0.95-3.95,2.05-5.66 c1-1.57,2.42-2.82,4.1-3.61c3.4-1.5,7.32-1.19,10.44,0.83c1.34,0.94,2.36,2.29,2.89,3.84C96.39,92.47,96.55,94.35,96.26,96.18z M84.39,96.38c-0.2,0.76-0.2,1.57,0,2.33c0.15,0.5,0.59,0.86,1.11,0.9c0.4,0.02,0.79-0.12,1.07-0.4c0.39-0.37,0.7-0.83,0.9-1.33 l1-5.32c-0.23-0.08-0.47-0.14-0.72-0.16c-0.8-0.11-1.61,0.2-2.12,0.83C84.97,94.16,84.54,95.25,84.39,96.38z" fill="#FFFFFF"/>
      </g>
      <g id="eyes">
        <g id="peepers">
          <path d="M82.77,51.36L82.77,51.36c4.19,0,8,3.54,8,9.42s-3.81,9.41-8,9.41l0,0c-4.19,0-8-3.54-8-9.41 S78.58,51.36,82.77,51.36z" fill="#422B0D"/>
          <path d="M45.23,51.36L45.23,51.36c-4.19,0-8,3.54-8,9.42s3.81,9.41,8,9.41l0,0c4.19,0,8-3.54,8-9.41 S49.42,51.36,45.23,51.36z" fill="#422B0D"/>
        </g>
        <g id="eyebrows">
          <path d="M36.58,43.73l-0.11-0.09c-1.67-1.49-4.3,0.92-2.81,3c1.21,1.6,2.67,2.99,4.34,4.11 c4.45,3.01,9.98,3.94,15.17,2.54c2.45-0.71,1.89-4.25-0.35-4.08C46.9,49.56,41.08,47.59,36.58,43.73z" fill="#422B0D"/>
          <path d="M91.42,43.73l0.11-0.09c1.67-1.49,4.3,0.92,2.81,3c-1.21,1.6-2.67,2.99-4.34,4.11 c-4.45,3.01-9.98,3.94-15.17,2.54c-2.45-0.71-1.89-4.25,0.35-4.08C81.1,49.56,86.92,47.59,91.42,43.73z" fill="#422B0D"/>
        </g>
      </g>
    </g>
    <g id="peepers-2">
      <path d="M44.28,54.87L44.28,54.87c-1.42-0.68-3.13-0.08-3.82,1.34c-0.53,1.11-0.29,2.44,0.6,3.3l0,0 c1.42,0.68,3.13,0.08,3.82-1.34C45.41,57.06,45.17,55.73,44.28,54.87z" fill="#896024"/>
    </g>
    <g id="peepers-3">
      <path d="M82.63,54.87L82.63,54.87c-1.42-0.68-3.13-0.08-3.82,1.34c-0.53,1.11-0.29,2.44,0.6,3.3l0,0 c1.42,0.68,3.13,0.08,3.82-1.34C83.76,57.06,83.52,55.73,82.63,54.87z" fill="#896024"/>
    </g>
  </g>
</svg>

<svg viewBox="0 0 128 128" xmlns="http://www.w3.org/2000/svg">
  <defs>
    <radialGradient id="cursing-face_1_" cx="63.6" cy="62.8999" gradientUnits="userSpaceOnUse" r="56.9597">
      <stop offset="0.12" stop-color="#FAC742"/>
      <stop offset="0.32" stop-color="#FAC440"/>
      <stop offset="0.48" stop-color="#FBBA3B"/>
      <stop offset="0.62" stop-color="#FBA931"/>
      <stop offset="0.76" stop-color="#FC9224"/>
      <stop offset="0.88" stop-color="#FE7413"/>
      <stop offset="1" stop-color="#FF5100"/>
    </radialGradient>
  </defs>
  <path id="cursing-face" d="M63.6,118.8 C35.7,118.8 5.6,101.3 5.6,62.9 C5.6,24.5 35.7,7 63.6,7 C79.1,7 93.4,12.1 104,21.4 C115.5,31.6 121.6,46 121.6,62.9 C121.6,79.8 115.5,94.1 104,104.3 C93.4,113.6 79,118.8 63.6,118.8 Z" fill="url(#cursing-face_1_)"/>
  <path d="M111.49,29.67 C116.82,38.27 119.6,48.51 119.6,59.9 C119.6,76.8 113.5,91.1 102,101.3 C91.4,110.6 77,115.8 61.6,115.8 C43.54,115.8 24.6,108.45 13.42,92.86 C24.18,110.52 44.42,118.8 63.6,118.8 C79,118.8 93.4,113.6 104,104.3 C115.5,94.1 121.6,79.8 121.6,62.9 C121.6,50.16 118.13,38.84 111.49,29.67 Z" fill="#D84213"/>
  <path d="M21.032,106.208 L24.566,72.644 L103.559,80.96 L100.025,114.525 L21.032,106.208 Z"/>
  <path d="M38.73,94.29 L36.63,94.09 L35.24,99.35 L32.64,99.1 L34,93.84 L31.11,93.56 L31.34,91.17 L34.63,91.49 L35.53,88.1 L32.65,87.82 L32.88,85.44 L36.15,85.76 L37.58,80.42 L40.16,80.67 L38.78,86 L40.88,86.2 L42.3,80.86 L44.89,81.11 L43.47,86.45 L46.47,86.74 L46.24,89.13 L42.84,88.8 L41.93,92.18 L44.93,92.47 L44.7,94.86 L41.32,94.53 L39.93,99.8 L37.34,99.55 L38.73,94.29 Z M37.25,91.74 L39.35,91.94 L40.25,88.56 L38.15,88.35 L37.25,91.74 Z" fill="#FFFFFF"/>
  <path d="M57,96.5 C57.07,95.97 56.95,95.44 56.65,95 C56.25,94.52 55.75,94.14 55.18,93.88 C54.46,93.5 53.8,93.13 53.18,92.76 C52.62,92.41 52.1,91.99 51.65,91.51 C51.25,91.07 50.95,90.56 50.76,90 C50.56,89.35 50.5,88.67 50.58,88 C50.68,86.82 51.26,85.74 52.19,85 C53.23,84.22 54.51,83.83 55.81,83.88 L56,81.44 L57.81,81.62 L57.58,84.07 C58.83,84.32 59.94,85.04 60.69,86.07 C61.41,87.15 61.72,88.47 61.54,89.76 L57.68,89.39 C57.78,88.75 57.68,88.1 57.4,87.52 C56.92,86.75 55.9,86.51 55.13,86.99 C55.07,87.03 55.01,87.07 54.95,87.12 C54.62,87.46 54.42,87.91 54.4,88.38 C54.33,88.87 54.45,89.37 54.75,89.77 C55.16,90.23 55.65,90.6 56.2,90.87 C56.88,91.24 57.52,91.61 58.12,92 C58.68,92.35 59.19,92.78 59.64,93.26 C60.05,93.71 60.36,94.23 60.57,94.8 C60.78,95.44 60.85,96.13 60.77,96.8 C60.7,97.99 60.14,99.1 59.22,99.87 C58.23,100.64 57,101.04 55.75,101 L55.52,103.29 L53.71,103.12 L53.93,100.81 C52.5,100.6 51.2,99.86 50.28,98.74 C49.45,97.61 49.09,96.19 49.28,94.8 L53.12,95.17 C53.01,95.86 53.15,96.57 53.51,97.17 C53.88,97.67 54.46,97.98 55.08,98.01 C55.53,98.08 55.99,97.95 56.35,97.66 C56.71,97.37 56.94,96.96 57,96.5 Z" fill="#FFFFFF"/>
  <path d="M65.75,101.68 C65.79,101.09 66.09,100.56 66.57,100.22 C67.63,99.51 69.03,99.65 69.94,100.54 C70.71,101.41 70.63,102.73 69.77,103.5 C69.73,103.54 69.69,103.57 69.64,103.61 C69.13,103.97 68.51,104.12 67.9,104.04 C67.28,104 66.7,103.73 66.28,103.28 C65.88,102.85 65.68,102.27 65.75,101.68 Z M70.24,98.17 L66.8,97.84 L67.47,85.25 L71.99,85.69 L70.24,98.17 Z" fill="#FFFFFF"/>
  <path d="M96.26,96.18 C96.11,97.93 95.41,99.59 94.26,100.91 C93.27,102.01 91.8,102.56 90.33,102.37 C89.74,102.32 89.16,102.12 88.67,101.79 C88.22,101.46 87.87,101.02 87.67,100.5 C86.87,101.43 85.65,101.9 84.43,101.75 C83.71,101.69 83.04,101.39 82.52,100.89 C81.99,100.34 81.64,99.64 81.52,98.89 C81.33,97.97 81.33,97.01 81.52,96.09 C81.83,94.38 82.65,92.8 83.87,91.56 C84.9,90.51 86.35,89.98 87.81,90.13 C88.86,90.21 89.87,90.59 90.71,91.22 L91.4,91.79 L90.13,98.62 C89.9,99.7 90.22,100.28 91.13,100.36 C91.9,100.38 92.6,99.94 92.93,99.25 C93.52,98.28 93.88,97.19 93.99,96.06 C94.48,93.94 94.12,91.71 92.99,89.85 C91.77,88.23 89.88,87.25 87.85,87.19 C86.44,87.03 85.01,87.3 83.75,87.95 C82.47,88.64 81.4,89.68 80.68,90.95 C79.83,92.38 79.28,93.96 79.07,95.61 C78.68,98.34 79.01,100.49 80.07,102.06 C81.33,103.72 83.28,104.72 85.36,104.77 C86.06,104.84 86.77,104.84 87.47,104.77 C88.1,104.72 88.72,104.59 89.32,104.41 L89.57,106.41 C88.94,106.71 88.26,106.91 87.57,106.98 C86.72,107.1 85.85,107.1 85,107 C83.11,106.88 81.29,106.28 79.7,105.25 C78.28,104.29 77.22,102.88 76.7,101.25 C76.12,99.33 75.99,97.3 76.31,95.32 C76.56,93.3 77.26,91.37 78.36,89.66 C79.36,88.09 80.78,86.84 82.46,86.05 C85.86,84.55 89.78,84.86 92.9,86.88 C94.24,87.82 95.26,89.17 95.79,90.72 C96.39,92.47 96.55,94.35 96.26,96.18 Z M84.39,96.38 C84.19,97.14 84.19,97.95 84.39,98.71 C84.54,99.21 84.98,99.57 85.5,99.61 C85.9,99.63 86.29,99.49 86.57,99.21 C86.96,98.84 87.27,98.38 87.47,97.88 L88.47,92.56 C88.24,92.48 88,92.42 87.75,92.4 C86.95,92.29 86.14,92.6 85.63,93.23 C84.97,94.16 84.54,95.25 84.39,96.38 Z" fill="#FFFFFF"/>
  <path d="M82.77,51.36 L82.77,51.36 C86.96,51.36 90.77,54.9 90.77,60.78 C90.77,66.66 86.96,70.19 82.77,70.19 L82.77,70.19 C78.58,70.19 74.77,66.65 74.77,60.78 C74.77,54.91 78.58,51.36 82.77,51.36 Z" fill="#422B0D"/>
  <path d="M45.23,51.36 L45.23,51.36 C41.04,51.36 37.23,54.9 37.23,60.78 C37.23,66.66 41.04,70.19 45.23,70.19 L45.23,70.19 C49.42,70.19 53.23,66.65 53.23,60.78 C53.23,54.91 49.42,51.36 45.23,51.36 Z" fill="#422B0D"/>
  <path d="M36.58,43.73 L36.47,43.64 C34.8,42.15 32.17,44.56 33.66,46.64 C34.87,48.24 36.33,49.63 38,50.75 C42.45,53.76 47.98,54.69 53.17,53.29 C55.62,52.58 55.06,49.04 52.82,49.21 C46.9,49.56 41.08,47.59 36.58,43.73 Z" fill="#422B0D"/>
  <path d="M91.42,43.73 L91.53,43.64 C93.2,42.15 95.83,44.56 94.34,46.64 C93.13,48.24 91.67,49.63 90,50.75 C85.55,53.76 80.02,54.69 74.83,53.29 C72.38,52.58 72.94,49.04 75.18,49.21 C81.1,49.56 86.92,47.59 91.42,43.73 Z" fill="#422B0D"/>
  <path d="M44.28,54.87 L44.28,54.87 C42.86,54.19 41.15,54.79 40.46,56.21 C39.93,57.32 40.17,58.65 41.06,59.51 L41.06,59.51 C42.48,60.19 44.19,59.59 44.88,58.17 C45.41,57.06 45.17,55.73 44.28,54.87 Z" fill="#896024"/>
  <path d="M82.63,54.87 L82.63,54.87 C81.21,54.19 79.5,54.79 78.81,56.21 C78.28,57.32 78.52,58.65 79.41,59.51 L79.41,59.51 C80.83,60.19 82.54,59.59 83.23,58.17 C83.76,57.06 83.52,55.73 82.63,54.87 Z" fill="#896024"/>
</svg>
